gos-pohoronq/img/book.svg

<svg width="89" height="88" viewBox="0 0 89 88" fill="none" xmlns="http://www.w3.org/2000/svg">
<path d="M87.4 53.125L80 48.125V33.125L87.4 28.225C87.8 27.925 88.1 27.525 88.1 27.025C88.1 26.525 87.8 26.025 87.4 25.825L49.3 0.225C48.8 -0.075 48.1 -0.075 47.6 0.225L0.6 31.625C0.4 31.725 0.3 31.825 0.2 32.025C0.2 32.025 0.2 32.025 0.2 32.125C-1.93715e-07 32.425 0 32.625 0 32.925V60.425C0 60.925 0.3 61.425 0.7 61.625L38.8 87.025C39.1 87.225 39.3 87.325 39.6 87.325C39.9 87.325 40.2 87.225 40.4 87.025L87.5 55.625C87.9 55.325 88.2 54.925 88.2 54.425C88.1 53.825 87.8 53.325 87.4 53.125ZM48.5 3.325L83.9 26.925L78.1 30.725C77.8 30.825 77.5 31.025 77.3 31.225L39.5 56.425L11.1 37.525C11 37.425 10.9 37.425 10.9 37.325L4.1 32.825L48.5 3.325ZM11.6 41.525L38.6 59.525C39.1 59.825 39.8 59.825 40.3 59.525L77 35.025V47.325L39.7 71.925L11.6 53.925V41.525ZM39.5 83.925L2.9 59.525V35.725L8.7 39.525V54.725C8.7 55.225 9 55.725 9.4 56.025L39 75.025C39.2 75.225 39.5 75.225 39.8 75.225C40.1 75.225 40.4 75.125 40.6 75.025L78 50.425L83.9 54.425L39.5 83.925Z" fill="white"/>
<path d="M42 17.0251L59.8 29.2251C60.1 29.4251 60.4 29.5251 60.6 29.5251C61.1 29.5251 61.5 29.3251 61.8 28.8251C62.3 28.1251 62.1 27.2251 61.4 26.7251L43.7 14.5251C43 14.0251 42.1 14.2251 41.6 14.9251C41.1 15.6251 41.3 16.5251 42 17.0251Z" fill="white"/>
</svg>

<svg width="89" height="88" fill="none" xmlns="http://www.w3.org/2000/svg"><path d="M87.4 53.125l-7.4-5v-15l7.4-4.9c.4-.3.7-.7.7-1.2s-.3-1-.7-1.2L49.3.225c-.5-.3-1.2-.3-1.7 0l-47 31.4c-.2.1-.3.2-.4.4v.1c-.2.3-.2.5-.2.8v27.5c0 .5.3 1 .7 1.2l38.1 25.4c.3.2.5.3.8.3.3 0 .6-.1.8-.3l47.1-31.4c.4-.3.7-.7.7-1.2-.1-.6-.4-1.1-.8-1.3zm-38.9-49.8l35.4 23.6-5.8 3.8c-.3.1-.6.3-.8.5l-37.8 25.2-28.4-18.9c-.1-.1-.2-.1-.2-.2l-6.8-4.5 44.4-29.5zm-36.9 38.2l27 18c.5.3 1.2.3 1.7 0l36.7-24.5v12.3l-37.3 24.6-28.1-18v-12.4zm27.9 42.4l-36.6-24.4v-23.8l5.8 3.8v15.2c0 .5.3 1 .7 1.3l29.6 19c.2.2.5.2.8.2.3 0 .6-.1.8-.2l37.4-24.6 5.9 4-44.4 29.5z" fill="#fff"/><path d="M42 17.025l17.8 12.2c.3.2.6.3.8.3.5 0 .9-.2 1.2-.7.5-.7.3-1.6-.4-2.1l-17.7-12.2c-.7-.5-1.6-.3-2.1.4s-.3 1.6.4 2.1z" fill="#fff"/></svg>
